static/images/mobile/copyright/wikipedia-wordmark-ko.svg

<?xml version="1.0" encoding="UTF-8"?>
<svg xmlns="http://www.w3.org/2000/svg" width="106" height="25" viewBox="0 0 106 25">
	<title>
		Shape
	</title>
	<g id="Page-1" fill="none" fill-rule="evenodd" stroke="none" stroke-width="1">
		<path id="Shape" fill="#000" fill-rule="nonzero" d="M16.203926,0.254223444 C17.254405,0.254223444 18.2698846,0.43220243 19.2503698,0.788101511 C20.1082548,1.11013816 20.5109447,1.49994875 20.4584425,1.95753328 L20.3008681,3.61000039 L20.3008681,3.61000039 L20.3008681,18.2279711 C20.3008458,20.6346381 20.0382215,22.3803201 19.5129942,23.4650173 C19.3553985,23.7531326 19.1890697,23.9565133 19.0140078,24.0751594 C18.8739209,24.1937957 18.7163465,24.2531188 18.5412836,24.2531188 C18.3661801,24.2531188 18.2173601,24.1344727 18.0948227,23.8972001 C17.937228,23.5921241 17.8496859,22.6006517 17.8321983,20.9227632 L17.8059371,13.6773312 C16.1601387,14.1518961 13.6827175,14.6433921 10.3736645,15.151839 L10.3999257,17.2364889 C10.3999136,20.3210916 10.0147315,22.2277821 9.24437855,22.9565704 C9.05177637,23.1430003 8.84167651,23.2362152 8.61407999,23.2362152 C8.01878692,23.2362152 7.77367143,22.0837245 7.8787315,19.778743 L7.86240668,18.6595548 C7.85577539,17.9663779 7.85246404,17.1191588 7.85247028,16.1178999 L7.82620907,15.7874025 L7.82620907,15.4060624 L5.97346971,15.5788666 C5.74449483,15.6034955 5.60046363,15.6221649 5.5413759,15.6348743 L5.22622713,15.7111384 L3.88684231,16.2704379 L3.59795475,16.2958592 C3.07270105,16.2958592 2.31984474,15.990793 1.33938482,15.3806411 C0.446458903,14.8213515 0,14.3467965 0,13.9569859 C0,13.776203 0.152169088,13.6824647 0.456511536,13.6757641 L0.73534849,13.6773312 C2.25856587,13.7959774 3.57168643,13.8553004 4.67471525,13.8552906 C8.70161298,13.8553004 13.0874376,13.448539 17.8322024,12.6350063 L17.8321983,4.22014255 C17.8321781,3.49137391 17.7796556,2.99139754 17.6746229,2.72021343 C17.583563,2.49989495 17.1506002,2.14590185 16.3757339,1.65823413 L15.7049321,1.24783148 C15.2672153,0.972427931 15.0483644,0.785286185 15.0483788,0.686406244 C15.0483615,0.398300736 15.4335436,0.254223444 16.203926,0.254223444 Z M43.3959031,0.228811897 C44.4638889,0.228811897 45.4968784,0.406790883 46.4948715,0.762680148 C47.3527554,1.06777576 47.7817308,1.44063551 47.7817308,1.88127901 L47.6504187,3.55916748 L47.6241575,18.3296664 C47.6241352,20.2109356 47.4140353,21.7617173 46.9938589,22.9820016 C46.7137045,23.8294163 46.3547846,24.2531286 45.9170984,24.2531286 C45.4618628,24.1005906 45.2079919,23.3294399 45.1554877,21.9396766 L45.1554877,3.78796956 C45.1554674,3.16089619 45.0766838,2.74566424 44.9191256,2.54226389 C44.8140564,2.40669637 44.2975612,2.05077766 43.3696409,1.47451757 L42.5817669,0.940639504 C42.459192,0.822022836 42.3979303,0.720327569 42.3979303,0.635573334 C42.3979303,0.38136952 42.7305707,0.245782374 43.3959031,0.228811897 Z M73.1878602,15.2535343 C74.6585369,15.2535343 75.3939077,15.4992872 75.3939077,15.9907832 C75.3939077,16.1094293 75.2975929,16.5331416 75.1050202,17.2619103 C75.0349666,17.5500354 74.9999479,17.8042687 74.9999713,18.0245904 L75.0524937,19.7024789 C75.0524714,22.1260967 74.6322727,23.5921241 73.7918966,24.1005808 L73.3979591,24.2531188 L73.2141225,24.2531188 C72.741378,24.2531188 72.5050159,23.7192407 72.5050362,22.6514944 L72.5050362,17.3636055 C72.5050159,16.9229522 72.3124249,16.7026207 71.9272621,16.7026207 L71.7696877,16.7026207 L70.4588836,16.7800896 C69.4593542,16.8314353 67.9791305,16.8988272 66.0182109,16.9822655 C65.3879002,17.0161279 64.9239305,17.0924312 64.6263017,17.2110675 L63.6545911,17.6432503 C63.6020585,17.6602306 63.54953,17.6686717 63.4970167,17.6686717 C63.1118243,17.6686807 62.5280315,17.4336939 61.7456367,16.9637264 L61.5273323,16.8297275 C60.8094845,16.3890742 60.4505728,16.0246849 60.4505728,15.7365598 C60.4505728,15.5840316 60.6344013,15.5077577 61.0020837,15.5077577 L61.1162075,15.5140385 C61.28718,15.5286924 61.5905507,15.5689849 62.0263197,15.6348743 C62.7966747,15.7365598 63.5933011,15.7874123 64.4162018,15.7874025 L67.8409512,15.7855139 C69.9014193,15.7729141 71.2022426,15.6972713 71.7434255,15.5586004 L72.1271522,15.4577545 C72.6623748,15.3216113 73.0159438,15.2535343 73.1878602,15.2535343 Z M96.9131938,0.254203814 C97.8411171,0.254203814 98.8215831,0.423702469 99.8545918,0.762650703 C100.817527,1.08469717 101.272738,1.45755691 101.220236,1.88124956 L101.181847,2.29418064 C101.036374,4.03315309 100.987896,6.81910355 101.036397,10.652032 L101.036397,12.5078798 C101.036377,12.7282114 101.045523,12.8892199 101.062658,12.9909054 C101.09764,13.0247678 101.211455,13.0417481 101.404074,13.0417481 C101.719199,13.0417579 102.200682,12.8807494 102.848512,12.5587226 C103.338715,12.32145 103.785176,12.2028137 104.187895,12.2028039 C105.255875,12.2028137 105.851153,12.4655076 105.973739,12.9909054 C105.991179,13.0587284 106,13.118022 106,13.1688647 C106,13.7998142 105.178407,14.1219018 103.535292,14.1351275 L102.848512,14.1349158 L101.036397,14.1857585 L101.036397,18.8635052 C101.036377,21.134585 100.747493,22.727729 100.169737,23.6429472 L99.8545918,24.0242873 L99.5131758,24.227668 C99.4255708,24.2446483 99.3380773,24.2530893 99.2505535,24.2530893 C98.7953219,24.2530893 98.5589507,23.6514177 98.5414702,22.4480842 L98.5414702,15.711109 C95.3269333,16.6873364 91.9989506,17.464504 88.5575296,18.0426117 L87.4061879,18.2279417 C86.89844,18.3126468 86.5920446,18.3719994 86.4870018,18.405901 L85.4365035,18.8635052 C85.3489594,18.8804855 85.2614152,18.8889266 85.1738792,18.8889266 C84.7361676,18.8889266 83.9658025,18.558439 82.8627838,17.8974443 L82.4902067,17.6673991 C81.7406173,17.1846357 81.3658246,16.8037133 81.3658246,16.5246319 C81.3658246,16.3551528 81.8035301,16.2873593 82.6789472,16.3212511 L86.4082131,16.4483579 L86.6654748,16.4442061 C86.9066597,16.4372818 87.2148446,16.4217027 87.5900265,16.3975152 L87.5900265,13.0163169 C87.5900172,12.4844026 87.246897,12.0030358 86.5606587,11.572201 L86.3819508,11.4655451 C85.9092206,11.1943806 85.6641051,10.9994704 85.6466024,10.8808243 C85.6465973,10.6266106 86.0055161,10.499494 86.7233629,10.4994842 C89.1219882,10.499494 90.2862929,10.8638832 90.2162697,11.5926519 L90.143332,12.1886765 C90.1109064,12.4742897 90.0919781,12.6840502 90.0865733,12.8179579 L90.0849535,16.1178704 L90.6095529,16.0679677 C92.131259,15.9072746 94.6351602,15.5256257 98.1212705,14.9230075 C98.2613168,14.889145 98.4013834,14.8637237 98.5414702,14.8467434 L98.5414702,3.78794012 C98.54145,3.27950304 98.4889478,2.91511382 98.3838928,2.69477244 C98.2788277,2.45750965 97.7273117,2.0422777 96.7293552,1.44906676 L96.4404633,1.26546444 C96.0027487,0.978290604 95.783894,0.785266555 95.7839109,0.686386614 C95.7838906,0.398281106 96.1603182,0.254203814 96.9131938,0.254203814 Z M38.7211848,4.6269138 L39.3777456,4.72859925 L40.9009681,4.88113725 C41.3911838,4.99979317 41.6363166,5.19469356 41.6363166,5.46585804 L41.6363166,5.56754349 L38.9838092,10.7537469 C37.6356578,13.1604236 36.042404,15.1010159 34.204043,16.5755138 C33.8713772,16.863639 33.5212118,17.1348133 33.1535457,17.3890367 C31.6653338,18.4059403 30.3347044,19.1177679 29.1616535,19.5245294 C28.7764673,19.6601165 28.4613186,19.7279101 28.2162051,19.7279101 C28.1461718,19.7279101 28.0761355,19.7109298 28.0061053,19.6770673 C27.9710835,19.6432049 27.9535727,19.6177835 27.9535828,19.6008033 C27.9535805,19.5372744 28.0422156,19.4355675 28.2194883,19.2957322 L28.426307,19.1431893 C30.7198885,17.4653106 32.3831755,16.0585964 33.416172,14.9230467 C34.1865281,14.0925828 34.8956133,13.1604236 35.5434298,12.1265692 L35.7724923,11.7586505 C36.1275159,11.1819387 36.3488028,10.7876568 36.4363537,10.5757875 L36.2963715,10.6212939 C35.8031537,10.7723039 34.6504967,11.0537308 32.8383959,11.4655745 L32.0767852,11.6435241 L30.7111381,12.2282448 L30.4485128,12.2536662 C30.0808345,12.253676 29.4155193,11.9825017 28.4525672,11.4401433 C27.7347245,11.0333917 27.3758067,10.719855 27.3758067,10.4995136 C27.3758067,10.3639363 27.4983624,10.2961427 27.7434809,10.2961329 L30.579825,10.3978282 C32.2956314,10.3978282 34.3616092,10.1436047 36.7777637,9.63514805 C36.9030755,9.60485008 37.1685599,8.97750838 37.5742174,7.75317919 L37.8151229,7.00868663 C37.8939058,6.75128705 37.9333018,6.58445199 37.9333109,6.50817318 C37.9332987,6.2370087 37.7231989,6.10990189 37.3030123,6.1268331 L34.9961974,6.21816149 C34.6381713,6.23476142 34.4441532,6.24668929 34.4141428,6.25394973 C33.9764272,6.30479246 33.5999985,6.37259585 33.2848579,6.45733045 L32.2080974,6.86409189 L32.050523,6.88951325 C31.6788017,6.88952231 31.0833129,6.65846326 30.2640532,6.19633609 L30.0545763,6.07599038 C29.3717483,5.6861896 29.0303373,5.3726431 29.0303413,5.13535087 C29.0303373,5.05064572 29.0828637,4.99130303 29.1879157,4.95739152 L31.945473,5.18620342 L32.3394095,5.18620342 L36.3313017,5.10993933 L36.3313017,5.10993933 L36.4481574,5.09428492 C36.6412617,5.06298858 36.9835534,4.98999439 37.4750326,4.87527032 L38.0908853,4.72859925 C38.3534974,4.66077623 38.5635963,4.6269138 38.7211848,4.6269138 Z M71.5333256,0 C72.3737038,0 73.3016433,0.177978986 74.3171452,0.533868252 C75.2975869,0.889806593 75.7615566,1.2880877 75.7090545,1.7287312 L75.5424505,3.08862661 C75.5201787,3.2836831 75.5056804,3.42357958 75.4989556,3.50831494 L75.4989556,8.46570646 L75.4937611,9.21896983 C75.4660775,11.1573672 75.3277424,12.5333252 75.0787559,13.3468437 C74.7810926,14.3298554 74.3171229,14.8213515 73.6868466,14.8213515 C73.2491178,14.8213515 73.0477734,13.8213987 73.0828103,11.8214834 L73.0828103,9.71141213 L70.9292893,9.71141213 C70.929271,11.609642 70.7892045,12.9061904 70.5090896,13.6010671 C70.2639558,14.1603666 69.9312993,14.4823836 69.5111168,14.5671182 L69.3010179,14.5925396 C68.8632942,14.4908541 68.6269321,13.7112231 68.5919317,12.2536564 L68.5919317,4.80485353 C68.5919154,4.36421003 68.5568998,4.04219301 68.4868817,3.83879266 C68.3643078,3.48289358 67.9090924,3.05071078 67.1212347,2.54224426 L66.5171984,2.0846401 C66.4296441,1.98296446 66.3858862,1.89822004 66.3858862,1.83041665 C66.3858862,1.55925218 66.727283,1.42366503 67.4101212,1.42365521 C68.197979,1.42366503 69.0471308,1.61010472 69.9575787,1.98294483 C70.7454344,2.30498148 71.1218621,2.67785104 71.0868637,3.10154369 L70.9292893,4.85569625 L70.9292893,4.85569625 L70.9292893,8.44027528 L73.0828103,8.44027528 L73.0828103,3.55915767 C73.082789,2.72870358 72.5750492,1.98297427 71.5595879,1.32196976 L70.666665,0.73724897 C70.544089,0.618632302 70.4828101,0.508466519 70.4828273,0.406761437 C70.4828101,0.135606776 70.8329755,0 71.5333256,0 Z M62.971764,3.43204104 C63.7771346,3.43204104 64.5650076,3.59306918 65.3353849,3.91506656 C65.7205538,4.08457503 65.9569158,4.26252457 66.0444711,4.44894463 L66.0969936,4.90654879 L66.0969936,4.95739152 L65.9984997,5.98701684 C65.9766143,6.24971693 65.9656748,6.43190909 65.9656814,6.53359454 L65.9656814,10.3978282 C65.9656682,12.1265692 65.6680273,13.296001 65.0727585,13.9061333 L64.7313465,14.1857879 L64.2848846,14.2874734 L64.2323621,14.2874734 C63.8646767,14.2874832 63.6370691,14.0671516 63.5495381,13.6264885 C63.4794947,13.2536288 63.3656903,13.0502481 63.2081261,13.0163464 L62.5536723,13.0180389 C60.7719426,13.0276214 59.6069396,13.0778938 59.0586595,13.1688843 L59.0197885,13.2186995 C58.9441498,13.324449 58.773269,13.5875104 58.5071486,14.0078286 C58.2270094,14.4315409 57.9118606,14.6433921 57.5617003,14.6433921 C56.9313966,14.6433921 56.6162479,13.6010671 56.6162519,11.5164172 L56.6687743,8.61824445 L56.6644853,8.14456042 C56.6473326,7.25218602 56.5787317,6.68977397 56.4586755,6.45733045 C56.3857221,6.31610611 56.0878365,6.0748281 55.5650207,5.7334964 L55.2243396,5.51669095 C54.8216467,5.26247732 54.6203043,5.08452778 54.6203043,4.9828227 C54.6203043,4.71165822 55.0142377,4.57607108 55.8021137,4.57606126 C56.8526079,4.57607108 57.7455298,4.74555991 58.4808833,5.08450815 C58.9360926,5.30484953 59.1637003,5.5675533 59.1637074,5.87260966 L59.1111849,7.62676222 L63.4707504,7.52507677 L63.4707494,6.10141174 C63.4707393,5.50823025 63.0155239,4.89808809 62.1051023,4.27098527 L61.5798537,3.86422384 C61.5623327,3.8303614 61.5535824,3.79640082 61.5535925,3.76253839 C61.5535834,3.54222645 62.0263065,3.43204104 62.971764,3.43204104 Z M94.1556344,4.34723955 C95.1360802,4.34723955 95.880175,4.47438562 96.3879391,4.72858944 C96.5980187,4.83029452 96.7030838,4.9404603 96.7030838,5.05908679 C96.7030838,5.26247732 96.5717575,5.63534688 96.3091453,6.17767583 C96.2215403,6.38107618 96.1603081,6.55903553 96.1253067,6.7115539 C95.7401084,8.8640072 95.3286692,10.4232594 94.8909789,11.3893006 C94.8734376,11.4571236 94.8471764,11.5248976 94.8121952,11.5926813 C94.2694297,12.7451819 93.7441749,13.4993817 93.2364514,13.8552906 C93.0963747,13.9569859 92.9738088,14.0078286 92.8687741,14.0078286 C92.7111865,14.0078286 92.6324029,13.9145842 92.632413,13.728174 L92.737468,13.1688843 L93.1576677,10.4740923 L93.1576677,10.4486709 L93.1940125,10.1710474 C93.2830588,9.41101311 93.358487,8.1561611 93.42029,6.40647791 C93.2627024,6.03362798 92.9738088,5.83024727 92.5536294,5.79633576 L91.8445461,5.87259984 L91.8445461,5.87259984 L88.3778934,5.99970666 L87.7738652,6.07597075 L86.0930653,6.55899627 C86.0055212,6.57597657 85.917976,6.58441764 85.830441,6.58441764 C85.4292035,6.58443563 84.8440745,6.3565754 84.07505,5.90083694 L83.8607566,5.77089476 C83.1779305,5.36415296 82.8365216,5.03365561 82.8365216,4.77942235 C82.8365216,4.62689417 82.9503229,4.55063008 83.1779336,4.55062027 L84.2284319,4.70314844 L85.7420017,4.80693979 C85.9662154,4.819905 86.1334833,4.82746256 86.2438054,4.82961917 L90.4001083,4.83026507 C91.5906641,4.83027489 92.4485642,4.76244206 92.9738291,4.62688436 L93.9980672,4.34723955 L94.1556344,4.34723955 Z M63.4444933,8.64366582 L59.1899726,8.77078245 L59.111189,8.77078245 L59.111189,11.9994428 L63.4707545,11.8977573 L63.4707545,9.27922933 L63.4444933,8.64366582 Z M7.66863063,2.13549264 C8.15885248,2.13549264 8.71911775,2.27109941 9.34942746,2.54225407 C9.6820729,2.69480188 9.8484017,2.84733987 9.84841387,2.99985824 C9.8484017,3.10156332 9.71708954,3.35579658 9.45447739,3.76253839 C10.2423392,3.7625482 11.0564744,3.96592892 11.896886,4.37268054 L11.9902557,4.42919427 C12.0038747,4.43673016 12.0165222,4.44331725 12.0281981,4.44894463 C13.3237967,5.16079187 14.0153741,6.16074461 14.1029314,7.44880287 C14.120422,7.5674588 14.1291926,7.69456561 14.1291926,7.83014294 C14.1291926,8.50808849 13.8577977,9.18602421 13.3150565,9.86395013 C12.264545,11.2198314 10.7325702,11.8977573 8.71912789,11.8977573 C6.98579747,11.8977573 5.57638139,11.4232121 4.49087458,10.4740923 C3.63296226,9.7283728 3.20401422,8.78774311 3.20401422,7.65218359 C3.20401422,6.16074461 4.18447313,5.00825388 6.14540818,4.19472119 C6.42553219,4.0760947 6.71441975,3.97440925 7.01206882,3.8896452 L7.77368056,3.68626448 C7.9312448,3.60155932 8.0100325,3.49985424 8.01004264,3.38119831 C8.01003377,3.24774474 7.88268717,3.05588645 7.62800217,2.80562344 L7.51105523,2.69479207 C7.33596289,2.5422737 7.24842179,2.42362759 7.24843091,2.33887336 C7.24842179,2.20330584 7.38848836,2.13549264 7.66863063,2.13549264 Z M8.32519142,5.08450815 C7.36222613,5.08450815 6.60936982,5.46585804 6.06662149,6.22852837 C5.76897242,6.6691915 5.62015954,7.14374651 5.62015954,7.65218359 C5.62015954,8.58436239 6.06661338,9.30466051 6.95954437,9.8131074 C7.44976723,10.1012325 7.96626145,10.2452902 8.50902905,10.2452902 C9.80463064,10.2452902 10.7413236,9.83853858 11.3191108,9.02500589 C11.5992298,8.61825427 11.7393095,8.15217959 11.7393095,7.62676222 C11.7393095,6.25395955 10.9339156,5.43196616 9.32316422,5.16077224 C9.00800429,5.10992951 8.67534669,5.08450815 8.32519142,5.08450815 Z"/>
	</g>
</svg>

<svg xmlns="http://www.w3.org/2000/svg" width="106" height="25"><path fill="#000" fill-rule="nonzero" d="M16.204.254a8.86 8.86 0 0 1 3.046.534c.858.322 1.26.712 1.208 1.17l-.157 1.652v14.618c0 2.407-.263 4.152-.788 5.237-.158.288-.324.492-.499.61a.712.712 0 0 1-.473.178c-.175 0-.324-.119-.446-.356-.158-.305-.245-1.296-.263-2.974l-.026-7.246c-1.646.475-4.123.966-7.432 1.475l.026 2.084c0 3.085-.385 4.992-1.156 5.72-.192.187-.402.28-.63.28-.595 0-.84-1.152-.735-3.457l-.017-1.12c-.006-.693-.01-1.54-.01-2.541l-.026-.33v-.382l-1.853.173a5.778 5.778 0 0 0-.432.056l-.315.076-1.34.56-.288.025c-.525 0-1.278-.305-2.259-.915C.446 14.82 0 14.347 0 13.957c0-.18.152-.275.457-.281l.278.001c1.524.119 2.837.178 3.94.178 4.027 0 8.412-.406 13.157-1.22V4.22c0-.729-.052-1.229-.157-1.5-.091-.22-.524-.574-1.3-1.062l-.67-.41c-.438-.276-.657-.463-.657-.562 0-.288.386-.432 1.156-.432zM43.396.23c1.068 0 2.1.178 3.099.534.858.305 1.287.678 1.287 1.118L47.65 3.56l-.026 14.77c0 1.882-.21 3.433-.63 4.653-.28.847-.64 1.271-1.077 1.271-.455-.152-.709-.924-.762-2.313V3.788c0-.627-.078-1.042-.236-1.246-.105-.135-.621-.491-1.55-1.067L42.583.94c-.123-.119-.184-.22-.184-.305 0-.255.333-.39.998-.407zm29.792 15.025c1.47 0 2.206.245 2.206.737 0 .118-.096.542-.289 1.27-.07.289-.105.543-.105.764l.052 1.677c0 2.424-.42 3.89-1.26 4.399l-.394.152h-.184c-.473 0-.709-.534-.709-1.602v-5.287c0-.441-.193-.661-.578-.661h-.157l-1.311.077c-1 .051-2.48.119-4.44.202-.631.034-1.095.11-1.393.23l-.971.431a.51.51 0 0 1-.158.026c-.385 0-.969-.235-1.751-.705l-.219-.134c-.718-.44-1.076-.805-1.076-1.093 0-.153.183-.23.551-.23l.114.007c.171.015.475.055.91.12.77.103 1.567.153 2.39.153l3.425-.001c2.06-.013 3.361-.089 3.902-.227l.384-.101c.535-.136.889-.204 1.06-.204zm23.725-15c.928 0 1.909.17 2.942.509.963.322 1.418.695 1.365 1.118l-.038.413c-.146 1.74-.194 4.525-.146 8.358v1.856c0 .22.01.381.027.483.035.034.148.05.341.05.315 0 .797-.16 1.445-.482.49-.238.936-.356 1.339-.356 1.068 0 1.663.263 1.786.788a.728.728 0 0 1 .026.178c0 .63-.822.953-2.465.966h-.686l-1.813.05v4.679c0 2.27-.289 3.864-.866 4.779l-.315.381-.342.204a1.377 1.377 0 0 1-.262.025c-.456 0-.692-.602-.71-1.805v-6.737a79.837 79.837 0 0 1-9.983 2.332l-1.152.185c-.508.085-.814.144-.919.178l-1.05.458a1.376 1.376 0 0 1-.263.025c-.438 0-1.208-.33-2.311-.992l-.373-.23c-.75-.482-1.124-.863-1.124-1.142 0-.17.438-.238 1.313-.204l3.73.127.256-.004c.242-.007.55-.022.925-.046v-3.382c0-.532-.343-1.013-1.03-1.444l-.178-.106c-.473-.272-.718-.467-.735-.585 0-.254.359-.382 1.076-.382 2.399 0 3.563.365 3.493 1.094l-.073.596a9.688 9.688 0 0 0-.056.629l-.002 3.3.525-.05c1.521-.16 4.025-.542 7.511-1.145.14-.034.28-.06.42-.076V3.787c0-.507-.052-.872-.157-1.092-.105-.237-.657-.653-1.655-1.246l-.289-.184c-.437-.287-.656-.48-.656-.579 0-.288.376-.432 1.13-.432zM38.721 4.627l.657.102 1.523.152c.49.119.735.314.735.585v.102l-2.652 5.186c-1.348 2.406-2.942 4.347-4.78 5.822-.333.288-.683.559-1.05.813-1.489 1.017-2.82 1.729-3.992 2.136-.386.135-.7.203-.946.203a.48.48 0 0 1-.21-.05c-.035-.035-.052-.06-.052-.077 0-.064.088-.165.265-.305l.207-.153c2.294-1.678 3.957-3.084 4.99-4.22.77-.83 1.48-1.763 2.127-2.796l.23-.368c.355-.577.576-.971.663-1.183l-.14.045c-.493.151-1.646.433-3.458.845l-.761.178-1.366.584-.262.026c-.368 0-1.033-.271-1.996-.814-.718-.407-1.077-.72-1.077-.94 0-.136.122-.204.367-.204l2.837.102c1.716 0 3.782-.254 6.198-.763.125-.03.39-.657.796-1.882l.241-.744c.079-.258.118-.425.118-.5 0-.272-.21-.4-.63-.382l-2.307.091a8.625 8.625 0 0 0-.582.036c-.438.05-.814.119-1.13.203l-1.076.407-.157.026c-.372 0-.968-.232-1.787-.694l-.21-.12c-.682-.39-1.024-.703-1.024-.94 0-.085.053-.145.158-.179l2.757.23h.394l3.992-.077.117-.016c.193-.031.536-.104 1.027-.219l.616-.146c.262-.068.473-.102.63-.102zM71.533 0c.84 0 1.769.178 2.784.534.98.356 1.445.754 1.392 1.195l-.167 1.36c-.022.195-.036.335-.043.42v4.957l-.005.753c-.028 1.938-.166 3.314-.415 4.128-.298.983-.762 1.474-1.392 1.474-.438 0-.64-1-.604-3v-2.11h-2.154c0 1.899-.14 3.195-.42 3.89-.245.56-.578.881-.998.966l-.21.026c-.438-.102-.674-.882-.71-2.34V4.806c0-.44-.034-.763-.104-.966-.123-.356-.578-.788-1.366-1.297l-.604-.457c-.087-.102-.131-.187-.131-.255 0-.27.341-.406 1.024-.406.788 0 1.637.186 2.548.559.787.322 1.164.695 1.129 1.119l-.158 1.754V8.44h2.154V3.56c0-.831-.508-1.577-1.523-2.238l-.893-.585c-.123-.118-.184-.229-.184-.33 0-.271.35-.407 1.05-.407zm-8.561 3.432c.805 0 1.593.161 2.363.483.386.17.622.348.71.534l.052.458v.05l-.099 1.03a7.79 7.79 0 0 0-.032.547v3.864c0 1.729-.298 2.898-.893 3.508l-.342.28-.446.101h-.053c-.367 0-.595-.22-.682-.66-.07-.373-.184-.577-.342-.61l-.654.001c-1.782.01-2.947.06-3.495.15l-.04.05c-.075.106-.246.37-.512.79-.28.424-.595.635-.945.635-.63 0-.946-1.042-.946-3.127l.053-2.898-.005-.473c-.017-.893-.085-1.455-.205-1.688-.073-.14-.371-.382-.894-.724l-.34-.216c-.403-.255-.605-.432-.605-.534 0-.271.394-.407 1.182-.407 1.05 0 1.944.17 2.679.509.455.22.683.483.683.788l-.053 1.754 4.36-.102V6.101c0-.593-.455-1.203-1.366-1.83l-.525-.407a.22.22 0 0 1-.026-.101c0-.22.472-.331 1.418-.331zm31.184.915c.98 0 1.724.127 2.232.382.21.101.315.211.315.33 0 .203-.131.576-.394 1.119a3.186 3.186 0 0 0-.184.534c-.385 2.152-.796 3.711-1.234 4.677a.977.977 0 0 1-.079.204c-.543 1.152-1.068 1.906-1.576 2.262-.14.102-.262.153-.367.153-.158 0-.237-.093-.237-.28l.105-.56.42-2.694v-.025l.037-.278c.09-.76.164-2.015.226-3.765-.157-.372-.446-.576-.866-.61l-.71.077L88.379 6l-.604.076-1.68.483a1.376 1.376 0 0 1-.264.025c-.4 0-.986-.227-1.755-.683l-.214-.13c-.683-.407-1.024-.737-1.024-.992 0-.152.113-.228.34-.228l1.051.152 1.514.104c.224.013.391.02.502.023H90.4c1.19 0 2.049-.068 2.574-.203l1.024-.28h.158zM63.444 8.644l-4.254.127h-.079v3.228l4.36-.101V9.279l-.027-.635zM7.67 2.135c.49 0 1.05.136 1.68.407.333.153.5.305.5.458 0 .102-.132.356-.395.763.788 0 1.602.203 2.443.61l.093.056a.765.765 0 0 0 .038.02c1.296.712 1.987 1.712 2.075 3 .017.118.026.246.026.381 0 .678-.271 1.356-.814 2.034-1.05 1.356-2.582 2.034-4.596 2.034-1.733 0-3.143-.475-4.228-1.424-.858-.746-1.287-1.686-1.287-2.822 0-1.491.98-2.644 2.941-3.457.28-.119.57-.22.867-.305l.762-.204c.157-.084.236-.186.236-.305 0-.133-.127-.325-.382-.575l-.117-.111c-.175-.153-.263-.271-.263-.356 0-.136.14-.204.42-.204zm.656 2.95c-.963 0-1.716.38-2.258 1.144-.298.44-.447.915-.447 1.423 0 .932.447 1.653 1.34 2.161.49.288 1.006.432 1.549.432 1.296 0 2.232-.406 2.81-1.22.28-.407.42-.873.42-1.398 0-1.373-.805-2.195-2.416-2.466a6.264 6.264 0 0 0-.998-.076z"/></svg>
